X: 1
T: Mouse In The House
R: slide
M: 12/8
L: 1/8
K: Gmaj
|: B |d2 g edB d2 c A2 G | A2 B c2 d e2 d B2 c |
d2 g edB d2 c A2 g | fed cBA G3 G2 :|
|: B |d2 B d2 B d2 g b2 g | f2 d A2 B c2 d e2 g |
d3 d2 B d2 g b2 g | fed cBA G3 G2 :|
